image/lock.svg

<svg fill="none" height="23" viewBox="0 0 19 23" width="19" xmlns="http://www.w3.org/2000/svg"><path d="m5.27778 10.4545h8.44442v-3.13632c0-1.15435-.4123-2.13991-1.237-2.95667-.8246-.81677-1.8197-1.22515-2.9852-1.22515-1.16551 0-2.16059.40838-2.98524 1.22515-.82466.81676-1.23698 1.80232-1.23698 2.95667zm13.72222 1.5682v9.4091c0 .4356-.1539.8059-.4618 1.1108s-.6817.4574-1.1215.4574h-15.83337c-.43981 0-.813654-.1525-1.121524-.4574-.307871-.3049-.461806-.6752-.461806-1.1108v-9.4091c0-.4356.153935-.8058.461806-1.1108.30787-.3049.681714-.4574 1.121524-.4574h.52778v-3.13632c0-2.00379.7257-3.72443 2.17708-5.16193 1.45139-1.4375 3.18866-2.15625 5.21181-2.15625 2.0231 0 3.7604.71875 5.2118 2.15625s2.1771 3.15814 2.1771 5.16193v3.13632h.5278c.4398 0 .8136.1525 1.1215.4574.3079.305.4618.6752.4618 1.1108z" fill="#e5e5e5"/></svg>

<svg width="19" height="23" viewBox="0 0 19 23" fill="none" xmlns="http://www.w3.org/2000/svg">
<path d="M5.27778 10.4545H13.7222V7.31818C13.7222 6.16383 13.3099 5.17827 12.4852 4.36151C11.6606 3.54474 10.6655 3.13636 9.5 3.13636C8.33449 3.13636 7.33941 3.54474 6.51476 4.36151C5.6901 5.17827 5.27778 6.16383 5.27778 7.31818V10.4545ZM19 12.0227V21.4318C19 21.8674 18.8461 22.2377 18.5382 22.5426C18.2303 22.8475 17.8565 23 17.4167 23H1.58333C1.14352 23 0.769676 22.8475 0.461806 22.5426C0.153935 22.2377 0 21.8674 0 21.4318V12.0227C0 11.5871 0.153935 11.2169 0.461806 10.9119C0.769676 10.607 1.14352 10.4545 1.58333 10.4545H2.11111V7.31818C2.11111 5.31439 2.83681 3.59375 4.28819 2.15625C5.73958 0.71875 7.47685 0 9.5 0C11.5231 0 13.2604 0.71875 14.7118 2.15625C16.1632 3.59375 16.8889 5.31439 16.8889 7.31818V10.4545H17.4167C17.8565 10.4545 18.2303 10.607 18.5382 10.9119C18.8461 11.2169 19 11.5871 19 12.0227Z" fill="#E5E5E5"/>
</svg>
